X:014 
T:Blue Pantaloons (reel), The
S:Madigan MS
F:file ID: cre.4/014blue_p
B:CRE4.165 (Pantaluin Ghorma)
L:1/8
Q:180
M:4/4
R:reel
K:D
f2fd e2ed|cdef geeg|f2fd e2ed|cAGE D2D2:|
Addc dfed|cdef ge e2|Addc dfed|cAGE D2D2:|

%%%
